icons/svgs/hourglass-outline.svg

<svg width="24" height="24" viewBox="0 0 24 24" fill="none" xmlns="http://www.w3.org/2000/svg">
<path d="M5.9375 2H19.0625C19.5703 2 20 2.42969 20 2.9375C20 3.48438 19.5703 3.875 19.0625 3.875H18.75V4.61719C18.75 6.21875 18.125 7.70312 16.9922 8.83594L13.7891 12L16.9922 15.2031C18.125 16.2969 18.75 17.8203 18.75 19.3828V20.125H19.0625C19.5703 20.125 20 20.5547 20 21.0625C20 21.6094 19.5703 22 19.0625 22H5.9375C5.39062 22 5 21.6094 5 21.0625C5 20.5547 5.39062 20.125 5.9375 20.125H6.25V19.3828C6.25 17.8203 6.875 16.2969 7.96875 15.2031L11.1719 12L7.96875 8.83594C6.875 7.70312 6.25 6.21875 6.25 4.61719V3.875H5.9375C5.39062 3.875 5 3.48438 5 2.9375C5 2.42969 5.39062 2 5.9375 2ZM12.5 13.3281L9.29688 16.5312C8.55469 17.2734 8.125 18.3281 8.125 19.3828V20.125H16.875V19.3828C16.875 18.3281 16.4453 17.2734 15.6641 16.5312L12.5 13.3281ZM12.5 10.6719V10.7109L15.6641 7.50781C16.4453 6.72656 16.875 5.71094 16.875 4.61719V3.875H8.125V4.61719C8.125 5.71094 8.55469 6.72656 9.29688 7.50781L12.5 10.6719Z" fill="black"/>
</svg>

<svg xmlns="http://www.w3.org/2000/svg" width="24" height="24" fill="currentColor" class="icon-hourglass-outline" viewBox="0 0 24 24">
  <mask id="a" width="15" height="20" x="5" y="2" maskUnits="userSpaceOnUse" style="mask-type:alpha">
    <path d="M5.938 2h13.125a.95.95 0 0 1 .937.938c0 .546-.43.937-.937.937h-.313v.742a5.9 5.9 0 0 1-1.758 4.219L13.79 12l3.203 3.203a5.82 5.82 0 0 1 1.758 4.18v.742h.313a.95.95 0 0 1 .937.938c0 .546-.43.937-.937.937H5.938C5.39 22 5 21.61 5 21.063c0-.508.39-.938.938-.938h.312v-.742c0-1.563.625-3.086 1.719-4.18L11.172 12 7.969 8.836A6.04 6.04 0 0 1 6.25 4.617v-.742h-.312c-.547 0-.938-.39-.938-.937C5 2.43 5.39 2 5.938 2M12.5 13.328l-3.203 3.203a4.1 4.1 0 0 0-1.172 2.852v.742h8.75v-.742a3.96 3.96 0 0 0-1.21-2.852zm0-2.656v.039l3.164-3.203a4.05 4.05 0 0 0 1.211-2.89v-.743h-8.75v.742c0 1.094.43 2.11 1.172 2.89z"/>
  </mask>
  <g mask="url(#a)">
    <path d="M0 0h24v24H0z"/>
  </g>
</svg>
